X:1
T: Lord Cathcart
N:
C:
S:A:
O:
K:Bb
R:Jig
M:6/8
L:1/8
|:F|BcB F2D|F2F F2d|efe dcB|d3 c2F|
BcB F2D|F2F Fde|fdB c2d|B3 B2:|
|:e|d2f fed|e2g cde|dcB BAB|dcA F2e|
d2f fed|efg cde|dcB BAB|d3 B2:|
